assets/images/grey-top.svg

<svg fill="none" height="757" viewBox="0 0 3024 757" width="3024" xmlns="http://www.w3.org/2000/svg"><path d="m-1.75 31.0107v628.8083c119.333-63.3 397.6-182.305 540-140.727 178 51.972 285 137.926 419 137.926 0 0 343.65 19.305 529 36.296 92.96 8.522 335.96 84.035 844 57.991 508.04-26.045 696.04-93.193 696.04-93.193l-2.26-627.1169c-344 14.0665-485.78-31.097379-869.97 68.7593-120.81 12.5546-129.58-10.1429-174.81-5.4354-63.75 6.636-66.1 18.798-100.07 27.224-32.8 8.125-59.73 8.715-82.9 18.68-43.82 18.85-103.8 25.306-131.05 22.408-71.66-7.616-98.98-21.639-108.33-24.587-64.34-20.289-78.12-14.083-98.09-34.572-682.56-176.0334-790.56-72.4621-1460.56-72.4613z" fill="#eaebea"/></svg>

<svg width="3024" height="757" viewBox="0 0 3024 757" fill="none" xmlns="http://www.w3.org/2000/svg">
    <path d="M-1.75 31.0107V659.819C117.583 596.519 395.85 477.514 538.25 519.092C716.25 571.064 823.25 657.018 957.25 657.018C957.25 657.018 1300.9 676.323 1486.25 693.314C1579.21 701.836 1822.21 777.349 2330.25 751.305C2838.29 725.26 3026.29 658.112 3026.29 658.112L3024.03 30.9951C2680.03 45.0616 2538.25 -0.102279 2154.06 99.7544C2033.25 112.309 2024.48 89.6115 1979.25 94.319C1915.5 100.955 1913.15 113.117 1879.18 121.543C1846.38 129.668 1819.45 130.258 1796.28 140.223C1752.46 159.073 1692.48 165.529 1665.23 162.631C1593.57 155.015 1566.25 140.992 1556.9 138.044C1492.56 117.755 1478.78 123.961 1458.81 103.472C776.25 -72.5614 668.25 31.0099 -1.75 31.0107Z" fill="#EAEBEA"/>
</svg>
